!!!!SEGMENT: pl-wtm--iii-41-637-4--001-003_joteyko-tadeusz--sonatine-h-moll-op-19-no-2-iii-rondo-alla-mazurka.krn
!!!cenid: 19xx:114
!!!COM: Joteyko, Tadeusz
!!!COM-rismID: pe50046072
!!!CDT: 1872-1932
!!!CNT: Polish
!!!OPR: Sonatine h-moll Op. 19 No. 2
!!!OTL: III. Rondo alla Mazurka
!!!OMV: 003
!!!PDT:
!!!AGN: Secular; Sonata
!!!YEC: Copyright 2022 Narodowy Instytut Fryderyka Chopina (https://polishscores.org)
!!!YEM: License CC-BY-4.0 (https://creativecommons.org/licenses/by/4.0)
!!!SMS-siglum: PL-Wtm
!!!SMS-shelfmark: III.41.637-4
!!!SMS-variant:
!!!SMS-altvar:
!!!SMS-shelfwork: 001-003 M
!!!NIFC-rismSourceID: 1001141267
!!!NIFC-rismChildID: 1001141267
!!!NIFC-islandoraID: pl-wtm:20276
!!!URL-pdf-islandora: https://repozytorium.nifc.pl/islandora/object/pl-wtm%3A20276/datastream/PDF/view
!!!URL-scan: https://polish.musicsources.pl/pl/lokalizacje/galeria/druki-muzyczne/17524/6 @EN{Scan on Polish Music Sources Website} @PL{Skany w portalu Dziedzictwo Muzyki Polskiej w otwartym dostępie}
!!!IIIF:
!!!ONB-nifc: UWAGA: części Sonatiny: I. Allegro moderato, II. Ballade, III. Rondo alla Mazurka
!!!AIN: 1 piano
!!!key: b
**kern	**fing	**kern	**fing	**dynam
*part1	*	*part1	*	*part1
*staff2	*	*staff1	*	*staff1/2
*group1	*	*group1	*	*
*ICklav	*	*ICklav	*	*
*Ipiano	*	*Ipiano	*	*
*I"PIANO.	*	*I"PIANO.	*	*
*I'	*	*I'	*	*
*clefF4	*	*clefG2	*	*
*k[f#c#]	*	*k[f#c#]	*	*
*b:	*	*b:	*	*
*M3/4	*	*M3/4	*	*
=1	=1	=1	=1	=1
*	*below	*	*	*
!!LO:TX:a:t=Allegro animato.
!	!	!	!	!LO:DY:rj
4BB/	5	8dd\L	4	p
.	.	8cc#\J	3	.
4A#X 4F#\	2 4	4.ee^\	5	.
4e\	.	.	.	.
.	.	8a#X/	2	.
=2	=2	=2	=2	=2
4BB/	5	8cc#\L	4	.
.	.	8b\J	3	.
4B 4F#\	2 4	4.dd^\	5	.
4d\	.	.	.	.
.	.	8f#/	1	.
=3	=3	=3	=3	=3
4C#/	5	8.an/L	3	.
.	.	16g/Jk	2	.
4An\	2	4e/	1	.
4c#\	1	4b 4g/	3 5	.
=4	=4	=4	=4	=4
4D\	5	(>2b 2g^>/	.	.
4A\	2	.	.	.
4d\	1	4a 4f#/)	2 4	.
=5	=5	=5	=5	=5
*^	*	*	*	*
4rc	2.Cn\	3	8.b/L	3	.
.	.	.	.	.	<
.	.	.	16a/Jk	2	.
4D/	.	.	4f#/	1	.
4F#/	.	.	4ee 4a\	2 5	[[
!!LO:LB:g=original
=6	=6	=6	=6	=6	=6
*	*	*	*^	*	*
4rA	2.BB\	4	(2ee^/	2.g\	.	<
4D/	.	.	.	.	.	.
4G/	.	.	4dd/)	.	4	[
*	*	*	*v	*v	*	*
=7	=7	=7	=7	=7	=7
4rA	2.AA#X\	5	8.dd\L	3	.
.	.	.	16cc#X\Jk	2	.
4E/	.	.	4f#/	1	.
4F#/	.	.	4gg 4ee\	3 5	.
=8	=8	=8	=8	=8	=8
4rA	2.BB\	4	(2gg 2ee^\	2 4	.
4D/	.	.	.	.	.
4F#/	.	.	4ff# 4dd\)	1 3	.
*v	*v	*	*	*	*
=9	=9	=9	=9	=9
8C#/L	3	8ee#XL 8cc#\	2 4	f
16r	.	16r	.	.
(<16C#/Jk	2	(16ee#Jk 16cc#\	.	.
4F#^\)	1	4ff# 4a#X^\)	.	.
4FF#/	.	4r	.	.
=10	=10	=10	=10	=10
8BB/L	3	8dd#XL 8b\	2 4	.
16r	.	16r	.	.
16BB/Jk	2	(16dd#Jk 16b\	.	.
4E^\	1	4ee 4g#X^\)	.	.
4EE/	5	4r	.	.
=11	=11	=11	=11	=11
4FF#/	4	8cc#L 8a#X\	2 3	.
.	.	16r	.	.
.	.	16cc#Jk 16a#\	.	.
4BB/	1	8dd\L	4	.
.	.	8f#\	.	.
4C#/	3	8ee\	5	.
.	.	8f#\J	.	.
!!LO:LB:g=original
=12	=12	=12	=12	=12
4D\	2	8ff#\L	4	<
.	.	8f#\	.	.
4E\	1	8gg\	5	.
.	.	8f#\	.	.
4C#/	2	8ee\	4	.
.	.	8f#\J	.	.
=13	=13	=13	=13	=13
4D\	1	8ff#\L	5	.
.	.	8f#\	.	.
4BB/	2	8dd\	3	[
.	.	8f#\	.	.
.	.	.	.	>
4AA#X/	3	8cc#\	2	.
.	.	8f#\J	.	.
=14	=14	=14	=14	=14
4C#/	1	8ee\L	5	.
.	.	8f#\	.	.
4AA#X/	3	8cc#\	3	.
.	.	8f#\	.	.
4GG/	4	8b\	2	.
.	.	8f#\J	.	]
=15	=15	=15	=15	=15
8FF#/L	5	8a#XL 8f#/	2 4	p
16r	.	16r	.	.
(16FF#/Jk	3	(16a#Jk 16f#/	.	.
4C#^>/)	1	4cc# 4e#X^>/)	.	.
4r	.	4r	.	.
=16	=16	=16	=16	=16
8CC#/L	4	8g#XL 8e#X 8B/	5	.
16r	.	16r	.	.
(16CC#/Jk	3	(16g#Jk 16e# 16B/	.	.
4FF#;/)	.	4f# 4A#X;/)	.	.
4r	.	4r	.	.
=17	=17	=17	=17	=17
4BB/	5	8dd\L	4	.
.	.	8cc#\J	.	.
(8A#XL 8F#\	3 5	4.ee^\	.	.
8c#\J	2	.	.	.
4e\)	1	.	.	.
.	.	8a#X/	2	.
!!LO:LB:g=original
=18	=18	=18	=18	=18
4BB/	5	8cc#\L	4	.
.	.	8b\J	.	.
(8BL 8F#\	3 5	4.dd^\	.	.
8c#\J	.	.	.	.
4d\)	.	.	.	.
.	.	8f#/	1	.
=19	=19	=19	=19	=19
4C#/	.	8.a/L	3	.
.	.	16g/Jk	2	.
4A\	.	4e/	1	.
4c#\	.	4b 4g/	.	.
=20	=20	=20	=20	=20
4D\	.	(>2b 2g^>/	.	.
4A\	.	.	.	.
4d\	.	4a 4f#/)	.	.
=21	=21	=21	=21	=21
*^	*	*	*	*
4rA	2.Cn\	3	8.b/L	5	.
.	.	.	16a/Jk	.	.
*	*	*	*brackettup	*	*
!	!	!	!LO:TX:t=P:problem:brackettup	!	!
!	!	!	!LO:TUP:b	!	!
4D/	.	.	12f#/L	.	.
.	.	.	12d/	.	<
.	.	.	12f#/J	.	.
!	!	!	!LO:TX:t=P:problem:brackettup	!	!
!	!	!	!LO:TUP:b	!	!
4F#/	.	.	12a/L	1	.
.	.	.	12b/	2	.
.	.	.	12ccn/J	3	.
=22	=22	=22	=22	=22	=22
*	*	*	*^	*	*
4rA	2.BB\	4	(2ee^/	2.g\	.	.
4D/	.	.	.	.	.	.
4G/	.	.	4dd/)	.	4	[
*	*	*	*v	*v	*	*
=23	=23	=23	=23	=23	=23
!	!	!	!LO:N:vis=8	!	!
4rA	2.AA#X\	5	8.dd\L	5	.
.	.	.	16cc#X\Jk	4	.
4E/	.	.	8f#/L	1	.
.	.	.	8g#X/J	2	.
!	!	!	!LO:TX:t=P:problem:brackettup	!	!
4F#/	.	.	20a#X\LL	3	.
.	.	.	20b\	1	.
.	.	.	20cc#\	2	.
.	.	.	20dd\	3	.
.	.	.	20ee\JJ	4	.
!!LO:LB:g=original
=24	=24	=24	=24	=24	=24
4rA	2.BB\	4	(2gg 2ee^\	3 5	.
4D/	.	.	.	.	.
4F#/	.	.	4ff# 4dd\)	2 4	.
*v	*v	*	*	*	*
=25	=25	=25	=25	=25
8BL 8C#\	.	8ee#XL 8cc#\	2 4	.
16r	.	16r	.	.
(16BJk 16C#\	.	(16ee#Jk 16cc#\	.	.
4A#X 4F#^\)	2 3	8ff#^>/L)	5	.
.	.	8f#/	1	.
4FF#/	.	8a#X/	2	.
.	.	8cc#/J	3	.
=26	=26	=26	=26	=26
8AnL 8BB\	.	8dd#XL 8b\	1 4	.
16r	.	16r	.	.
(16AJk 16BB\	.	(16dd#Jk 16b\	.	.
4G#X 4E^\)	2 3	8ee^>/L)	.	.
.	.	8e/	.	.
4EE/	.	8g#X/	.	.
.	.	8b/J	.	.
=27	=27	=27	=27	=27
8GnL 8AAn\	.	8cc#L 8an\	1 4	.
16r	.	16r	.	.
(16GJk 16AA\	.	(16cc#Jk 16a\	.	.
4F# 4D^\)	2 3	8dd^>/L)	.	.
.	.	8d/	.	.
4DD/	.	8f#/	.	.
.	.	8a/J	.	.
=28	=28	=28	=28	=28
!	!	!LO:TX:b:i:t=rit.	!	!
8FF#/L	3	8a#XL 8f# 8e/	4	.
16r	.	16r	.	.
(16FF#/Jk	2	(16a#Jk 16f# 16e/	.	.
4BB^>/	.	4b 4f# 4d^>/)	.	.
4BBB/)	5	4r	.	.
!!LO:PB:g=original
=29	=29	=29	=29	=29
!	!	!	!	!LO:DY:t=%s a tempo
2.r	.	8aa\L	2	p
.	.	16r	.	.
.	.	(16bb\K	.	.
.	.	8aa\)	.	.
.	.	16r	.	.
.	.	(16gg\K	1	.
.	.	8ff#\)	3	.
.	.	16r	.	.
.	.	(16ee\Jk	2	.
*clefG2	*	*	*	*
=30	=30	=30	=30	=30
8b/L	3	8b\)	1	.
16r	.	8r	.	.
(16cc#/K	2	.	.	.
8b/)	1	8gg 8dd\	.	.
16r	.	8r	.	.
(16a/K	2	.	.	.
8g/)	3	8cc#\	.	.
16r	.	8r	.	.
(16f#/Jk	4	.	.	.
=31	=31	=31	=31	=31
8g 8e/)	3 5	8dd\L	4	.
8r	.	16r	.	.
.	.	(16ee\K	.	.
8f#/	4	8dd\)	.	.
8r	.	16r	.	.
.	.	(16cc#\K	3	.
8g#X/	3	8b\)	.	.
8r	.	16r	.	.
.	.	(<16a\Jk	1	.
=32	=32	=32	=32	=32
8e/L	5	8g#X/)	3	.
16ra	.	8r	.	.
(16f#/K	2	.	.	.
8e/)	1	8cc# 8g#\	.	.
16ra	.	8r	.	.
(16d/K	2	.	.	.
8c#/)	3	8gn/	.	.
16ra	.	8r	.	.
(16B/Jk	4	.	.	.
=33	=33	=33	=33	=33
!LO:SIC:v:s=8A/)	!	!	!	!
8B/)	5	8f#/L	3	<
8r	.	16r	.	.
.	.	(16gn/K	.	.
8A#X/	4	8f#/)	.	.
8r	.	16rb	.	.
.	.	(16e/K	.	.
8B/L	3	8d/)	.	.
.	.	.	.	[
16rb	.	16rb	.	.
*clefF4	*above	*	*	*
(>16F#/Jk	2	(16c#/Jk	3	.
!!LO:LB:g=original
=34	=34	=34	=34	=34
*	*below	*	*	*
!LO:TX:t=P:problem:zakończenie łuku dołem	!	!	!	!
8D/L)	4	8B/L)	2	.
16r	.	16rb	.	.
(16E/K	1	(16c#/K	.	.
8D/)	2	8B/)	.	.
16r	.	16rb	.	.
(16C#/K	1	(16A/K	1	.
8BB/)	2	8G/)	3	.
16r	.	16rb	.	.
*	*	*clefF4	*	*
(16AA/Jk	2	(16F#/Jk	2	.
=35	=35	=35	=35	=35
8GG#X/)	3	8E#X\L)	1	.
8r	.	16r	.	.
.	.	(16G#X\K	2	.
4r	.	8c#\)	4	.
.	.	16rC	.	.
.	.	(16e#X\K	5	.
8BB#X/	2	8d#X 8F#\)	.	.
8r	.	16r	.	.
.	.	(16G#\Jk	.	.
=36	=36	=36	=36	=36
8C#/	1	4c# 4E#X\)	.	.
8r	.	.	.	.
8CC#/	.	4r	.	.
8r	.	.	.	.
8GG#X/	.	8d#XL 8F#^\	.	.
8r	.	16rF	.	.
.	.	(16B#X\Jk	.	.
=37	=37	=37	=37	=37
8C#/	.	4c# 4E#X\)	.	.
8r	.	.	.	.
8CC#/	.	4r	.	.
8r	.	.	.	.
8GG#X/	.	8d#XL 8F#^\	.	.
8r	.	16rF	.	.
.	.	(16B#X\Jk	.	.
=38	=38	=38	=38	=38
8C#/	.	4c# 4En\)	.	.
8r	.	.	.	.
8CC#/	.	4r	.	.
8r	.	.	.	>
8EE/	.	8dn 8F#\L	.	.
8r	.	16rF	.	.
.	.	(16B\J	.	.
!!LO:LB:g=original
=39	=39	=39	=39	=39
4E\	.	8G#X\)L	.	.
.	.	16r	.	.
.	.	(16A\	1	.
4r	.	8B\)	.	.
.	.	16r	.	.
.	.	(16c#\	3	.
4r	.	8d\)	1	.
.	.	16r	.	.
.	.	(16e\J	.	.
*	*	*clefG2	*	*
=40	=40	=40	=40	=40
!LO:TX:a:i:t=ritard.	!	!	!	!
2.r	.	8f#/L)	.	>
.	.	16r	.	.
.	.	(16g#X/K	4	.
.	.	8a/)	1	.
.	.	16r	.	.
.	.	(16b/K	2	.
.	.	8a/)	1	.
.	.	16r	.	]]
.	.	(<16b/Jk	.	.
=41||	=41||	=41||	=41||	=41||
!	!	!LO:TX:a:i:t=grazioso	!	!LO:DY:t=%s a tempo
4C#/	5	8a\L)	.	p
.	.	16ra	.	.
.	.	16bbJk 16ggn\	.	.
(16A\LL	2	4bb 4gg\	.	.
16G#X\	.	.	.	.
16A\	.	.	.	.
16B\JJ	.	.	.	.
4A\)	.	8r	.	.
.	.	8a/	2	.
=42	=42	=42	=42	=42
4D\	5	8a\L	1	.
.	.	16r	.	.
.	.	16aaJk 16ff#\	4 5	.
(16A\LL	2	4aa 4ff#\	.	.
16G#X\	.	.	.	.
16A\	.	.	.	.
16B\JJ	.	.	.	.
4A\)	.	8r	.	.
.	.	8a/	2	.
=43	=43	=43	=43	=43
(4E\	5	8a/L	1	<
.	.	16r	.	.
.	.	(16b/K	.	.
4G\	3	8a/)	.	.
.	.	16r	.	.
.	.	(16b/K	.	.
4c#\	1	8a/)	.	.
.	.	16r	.	.
.	.	(<16b/Jk	.	[
!!LO:LB:g=original
=44	=44	=44	=44	=44
!	!	!LO:TX:t=P:problem:zakończenie łuku górą	!	!
4F#\	4	8a\L)	1	.
.	.	16r	.	.
.	.	(16b\K	.	.
4A\	2	8cc#\)	.	.
.	.	16r	.	.
.	.	(16dd\K	.	.
4d\	1	8ee\)	.	.
.	.	16r	.	.
.	.	(16ff#\Jk	.	.
=45	=45	=45	=45	=45
4G\)	4	8ggL 8ee\)	.	mf
.	.	16r	.	.
.	.	16ddd 16bbJk\	.	.
(16B\LL	2	4ddd 4bb\	.	.
16A#X\	3	.	.	.
16B\	2	.	.	.
16c#\JJ	1	.	.	.
4B\)	2	8r	.	.
.	.	8gg 8ee\	2 4	.
=46	=46	=46	=46	=46
4D\	.	8ff#L 8dd\	1 3	.
.	.	16r	.	.
.	.	(16bbJk 16ff#\	.	.
(16A\LL	2	4aa 4ff#\)	.	.
16G#X\	.	.	.	.
16A\	.	.	.	.
16B\JJ	.	.	.	.
4A\)	.	8r	.	.
.	.	(8ff#\	2	.
=47	=47	=47	=47	=47
(4C#/	5	8ee#X\L)	1	.
.	.	16r	.	.
.	.	(16ff#\K	.	.
4B\	.	8gg#X\)	.	.
.	.	16r	.	.
.	.	(16aa\K	4	.
4E#X\)	3	8bb\)	5	.
.	.	16r	.	>
.	.	(16gg#\Jk	3	.
=48	=48	=48	=48	=48
*^	*	*	*	*
4rc	2.F#\	4	8ff#\)L	2	.
.	.	.	16r	.	.
.	.	.	(16ggn\K	3	.
(4G#X/	.	.	8ee\)	1	.
.	.	.	16r	.	.
.	.	.	(16ff#\K	3	.
4A/	.	.	8dd\)	1	]]
.	.	.	16r	.	.
.	.	.	(16ee\Jk	5	.
!!LO:LB:g=original
=49	=49	=49	=49	=49	=49
[2.A#X/)	[2.F#\	.	8cc#/L)	3	.
.	.	.	16r	.	.
.	.	.	16f#/Jk	.	.
.	.	.	4ff#\	.	.
.	.	.	4ff#\	.	.
=50	=50	=50	=50	=50	=50
2A#/]	2F#\]	.	8ccc#m\L	3	pp
.	.	.	16r	.	.
.	.	.	(16ff#\Jk	.	.
.	.	.	4fff#\)	.	.
4r	4ryy	.	4r	.	.
*v	*v	*	*	*	*
=51	=51	=51	=51	=51
4C#/	5	8a\L	.	.
.	.	16r	.	.
.	.	16bbJk 16gg\	.	.
!LO:TX:t=P:problem:brackettup	!	!	!	!
!LO:TUP:a	!	!	!	!
12G\L	3	4bb 4gg\	.	.
12A\	2	.	.	.
12B\J	1	.	.	.
4c#\	2	8r	.	.
.	.	8a/	2	.
=52	=52	=52	=52	=52
4D\	5	8a\L	1	.
.	.	16r	.	.
.	.	16aaJk 16ff#\	4 5	.
!LO:TX:t=P:problem:brackettup	!	!	!	!
!LO:TUP:a	!	!	!	!
12F#\L	4	4aa 4ff#\	.	.
12G\	.	.	.	.
12A\J	.	.	.	.
4d\	.	8r	.	.
.	.	8a/	2	.
=53	=53	=53	=53	=53
(4E\	.	8a/L	1	<
.	.	16r	.	.
.	.	(16b/K	.	.
4G\	.	8a/)	.	.
.	.	16r	.	.
.	.	(16b/K	.	.
!LO:TX:t=P:problem:łuk do następnego taktu	!	!	!	!
4c#\)	.	8a/)	.	.
.	.	16r	.	.
.	.	(<16b/Jk	.	[
!!LO:LB:g=original
=54	=54	=54	=54	=54
!	!	!LO:TX:t=P:problem:zakończenie łuku górą	!	!
(4F#\	.	8a\L)	.	.
.	.	16r	.	.
.	.	(16b\K	.	.
4A\	.	8cc#\)	.	.
.	.	16rb	.	.
.	.	(16dd\K	.	.
4d\	.	8ee\)	.	.
.	.	16rb	.	.
.	.	(16ff#\Jk	.	.
=55	=55	=55	=55	=55
[4G\)	5	8gg 8ee\)L	.	mf
.	.	16r	.	.
.	.	16ddd 16bb\J	.	.
(16G\LL]	.	4ddd 4bb\	.	.
16A\	4	.	.	.
16B\	.	.	.	.
16c#\JJ	.	.	.	.
4d\)	1	8r	.	.
.	.	8gg 8ee\	2 4	.
=56	=56	=56	=56	=56
(4D\	5	8ff# 8dd\L	1 3	.
.	.	16rcc	.	.
.	.	(16bb 16ff#\J	.	.
16F#\LL	3	4aa 4ff#\)	.	.
16A\	2	.	.	.
16B\	1	.	.	.
16c#\JJ	2	.	.	.
4d\)	1	8r	.	.
.	.	(8dd\	.	.
=57	=57	=57	=57	=57
4AA/	.	8cc#\)L	.	.
.	.	16r	.	.
.	.	(16dd\	.	.
4c# 4A 4G\	.	8ee\)	.	.
.	.	16r	.	.
.	.	(16ff#\	.	.
4E\	.	8gg\)	.	.
.	.	16r	.	.
.	.	(16cc#\J	.	.
=58	=58	=58	=58	=58
4D\	.	2dd 2f#\)	.	.
4DD/	.	.	.	.
4r	.	4r	.	.
!!LO:PB:g=original
=59	=59	=59	=59	=59
!	!	!	!	!LO:DY:rj
(<4FF#/	5	8dd\L	4	p
.	.	8cc#\J	.	.
8A#X\L)	1	4.ee^\	.	.
16r	.	.	.	.
(16F#\Jk	5	.	.	.
4e\)	1	.	.	.
.	.	8a#X/	2	.
=60	=60	=60	=60	=60
(4BB/	5	8cc#\L	4	.
.	.	8b\J	.	.
8B\L)	1	4.dd^\	.	.
16r	.	.	.	.
(16F#\Jk	4	.	.	.
4d\)	1	.	.	.
.	.	8f#/	1	.
=61	=61	=61	=61	=61
(4C#/	.	8.a/L	3	.
.	.	16g/Jk	.	.
8A\L)	.	4e/	.	.
16r	.	.	.	.
(16G\Jk	.	.	.	.
4c#\)	.	4b 4g/	3 5	.
=62	=62	=62	=62	=62
(8D\L	5	(2b (2g^>/	.	.
8E#X\	4	.	.	.
8F#\	3	.	.	.
8A\J	2	.	.	.
4d\)	1	4a 4f#/))	.	.
.	.	.	.	.
=63	=63	=63	=63	=63
*^	*	*	*	*
2.Cn/	8rEE	3	8.b/L	3	<
.	8D\L	2	.	.	.
.	.	.	16a/Jk	.	.
.	8F#\	1	4f#/	.	.
.	8D\	.	.	.	.
.	8F#\	.	4ee 4f#\	.	.
.	8D\J	.	.	.	[
!!LO:LB:g=original
=64	=64	=64	=64	=64	=64
*	*	*	*^	*	*
8rB	2.BB\	4	(2ee^/	2.g\	5	.
8D/L	.	.	.	.	.	.
8G/	.	.	.	.	.	.
8D/	.	.	.	.	.	.
8G/	.	.	4dd/)	.	4	.
8D/J	.	.	.	.	.	.
*	*	*	*v	*v	*	*
=65	=65	=65	=65	=65	=65
8rB	2.AA#X\	5	8.dd\L	3	.
8E/L	.	.	.	.	.
.	.	.	16cc#\Jk	2	.
8F#/	.	.	4f#/	1	.
8E/	.	.	.	.	.
8F#/	.	.	4gg 4ee\	3 5	.
8E/J	.	.	.	.	.
*v	*v	*	*	*	*
=66	=66	=66	=66	=66
8BB\L	5	(2gg (2ee^\	.	.
8D\	4	.	.	.
8F#\	3	.	.	.
8A#X\J	2	.	.	.
4B\	1	4ff# 4dd\))	.	.
=67	=67	=67	=67	=67
8C#/L	3	8ee#XL 8cc#\	2 4	.
16r	.	16r	.	.
(<16C#/Jk	2	(16ee#Jk 16cc#\	.	.
4F#\)	.	8ff#L 8a#X\)	.	.
.	.	16r	.	.
.	.	(16eeenJk 16aa#X\	.	.
!	!	!LO:SIC:v:s=8ccc# 8een\)	!	!
4FF#/	.	8ccc# 8ee#\)	.	.
.	.	8r	.	.
=68	=68	=68	=68	=68
8BB/L	3	8dd#XL 8b\	2 4	.
16r	.	16r	.	.
(<16BB/Jk	2	(16dd#Jk 16b\	.	.
4E\)	.	8eeL 8g#X\)	.	.
.	.	16r	.	.
.	.	16dddnJk 16gg#X\	.	.
!	!	!LO:SIC:v:s=8bb 8ddn\	!	!
4EE/	.	8bb 8dd#\	.	.
.	.	8r	.	.
!!LO:LB:g=original
=69	=69	=69	=69	=69
8AAn/L	3	8cc#L 8an\	2 4	.
16r	.	16r	.	.
(<16AA/Jk	2	(16cc#Jk 16a\	.	.
4D\)	.	8ddL 8f#\)	.	.
.	.	16r	.	.
.	.	(16cccnJk 16ff#\	.	.
4DD/	.	8aa 8ccn\)	.	.
.	.	8r	.	.
=75	=75	=75	=75	=75
!	!	!LO:TX:b:i:t=rit.	!	!
8FF#/L	.	8a#X 8f# 8e/L	4	.
16rC	.	16r	.	.
(16FF#/Jk	.	(16a# 16f# (16e/J	.	.
4BB/)	.	4b 4f# 4d/))	.	.
4BBB^>/	.	4bb 4ff# 4dd 4b^\	.	.
=76||	=76||	=76||	=76||	=76||
!	!	!LO:TX:a:i:t=Un poco piu lento.	!	!
2.r	.	4r	.	p
.	.	4B/	.	.
.	.	4B/	.	.
=77	=77	=77	=77	=77
2.r	.	8B/L	.	.
.	.	8A/J	.	.
.	.	4B/	.	.
.	.	4B#X/	.	.
=78	=78	=78	=78	=78
4GG/	5	8c#L 8A#X/	1 3	.
.	.	8dJ 8B/	.	.
*clefG2	*	*	*	*
!LO:TX:t=P:problem:brackettup	!	!	!	!
[[12g/L	5	4.e 4.c# 4.A#^>/	5	.
[[12a#X/	4	.	.	.
[>12cc#/J	2	.	.	.
4ee 4cc#] 4a#]] 4g/]]	1	.	.	.
.	.	8A# 8G/	.	.
*clefF4	*	*	*	*
!!LO:LB:g=original
=79	=79	=79	=79	=79
*^	*	*	*	*
4rA	2.GG\	.	2A#X 2G^>/	4	.
4E/	.	.	.	.	.
4D/	.	.	4B 4G/	3	.
*v	*v	*	*	*	*
=80	=80	=80	=80	=80
4GG/	.	8c#L 8A#X/	1 2	.
.	.	8dJ 8B/	1 3	.
*clefG2	*	*	*	*
!LO:TX:t=P:problem:brackettup	!	!	!	!
[[12a#X/L	5	4.g 4.c# 4.A#^>/	.	.
[[12cc#/	4	.	.	.
[12ee/J	.	.	.	<
4gg 4ee] 4cc#]] 4a#\]]	.	.	.	.
.	.	8e 8c# 8A#/	.	.
*clefF4	*	*	*	*
=81	=81	=81	=81	=81
*^	*	*	*	*
4rA	2.BB\	5	(>2e 2B^>/	4	.
4E#X/	.	2	.	.	.
4F#/	.	.	4d 4B/)	3	[[
*v	*v	*	*	*	*
=82	=82	=82	=82	=82
4AA/	.	8d/L	.	mf
.	.	16r	.	.
.	.	16ccn/Jk	.	.
4D\	.	4cc 4f#/	2 5	.
4F#\	.	8d/L	.	.
.	.	8cc/J	.	.
=83	=83	=83	=83	=83
*	*	*^	*	*
4GG/	.	(2ccn^/	2.g\	1 4	.
4D\	.	.	.	.	.
4G\	.	4b/)	.	3	.
*	*	*v	*v	*	*
=84	=84	=84	=84	=84
4EE/	.	8cn/L	.	.
.	.	16r	.	.
.	.	16b-X/Jk	.	.
4Cn/	.	4b- 4e/	.	.
4E\	.	8c/L	.	.
.	.	8b-/J	.	.
!!LO:LB:g=original
=85	=85	=85	=85	=85
*	*	*^	*	*
4FFn/	.	(2b-X^/	2.fn\	1 4	.
4Cn/	.	.	.	.	.
4Fn\	.	4a/)	.	3	.
*	*	*v	*v	*	*
=86	=86	=86	=86	=86
4Bn 4E\	.	8g#XL 8e/	1 3	f
.	.	16r	.	.
.	.	16aJk 16f#X/	2 4	.
4B 4E\	.	4bn 4g#/	3 5	.
4B 4E\	.	8cc#XL 8a\	1 3	.
.	.	8ddJ 8b\	.	.
=87	=87	=87	=87	=87
4AA/	5	8cc#L 8a\	.	.
.	.	16r	.	.
.	.	16ddJk 16b\	.	.
4A\	1	4ee 4cc#\	3 5	.
4c#\	2	4ee 4cc#\	.	.
=88	=88	=88	=88	=88
4B 4E\	.	8bL 8g#X\	1 3	.
.	.	16r	.	.
.	.	16cc#Jk 16a\	2 4	<
4B 4E\	.	4dd 4b\	3 5	.
4B 4E\	.	8eeL 8cc#\	1 2	.
.	.	8ff#J 8dd\	1 3	.
=89	=89	=89	=89	=89
*	*	*^	*	*
!	!	!LO:N:vis-8	!	!	!
4AA/	.	8ee/L	4dd\	1 2	.
.	.	16r	.	.	.
.	.	16gg#X/Jk	.	4	[
4A\	.	4aa/	4cc#\	1 5	.
4c#\	.	4aa/	4cc#\	.	.
*	*	*v	*v	*	*
!!LO:LB:g=original
=90	=90	=90	=90	=90
*^	*	*	*	*
4rc	2.D\	.	4.ccc# 4.ff#^\	2 5	f
4F#/	.	.	.	.	.
.	.	.	8bb\L	4	.
4B/	.	.	8ff#\	2	.
.	.	.	8dd\J	1	.
=91	=91	=91	=91	=91	=91
.	.	.	(8qee/	4	.
4rc	2.E\	.	8dd\L)	3	.
.	.	.	16r	.	.
.	.	.	16cc#\Jk	.	.
4A/	.	.	4aa 4cc#\	.	.
4c#/	.	.	4aa 4cc#\	.	.
=92	=92	=92	=92	=92	=92
4rc	2.D\	.	4.aa 4.ccn^\	5	.
4A/	.	.	.	.	.
.	.	.	8ff#\L	4	.
4cn/	.	.	8dd\	2	.
.	.	.	8cc\J	1	.
*v	*v	*	*	*	*
=93	=93	=93	=93	=93
.	.	(8qdd/	3	.
4GG/	5	8ccn\L)	2	>
.	.	16r	.	.
.	.	16b\Jk	.	.
4G\	1	4gg 4b\	.	.
4B\	2	4gg 4b\	.	]]
=94	=94	=94	=94	=94
4GG/	5	8cc#L 8a#X 8g/	3	mf
.	.	8ddJ 8b 8g/	4	.
(16C#\LL	1	4.ee 4.a# 4.g^>/	5	.
16D\	3	.	.	.
16E\	2	.	.	.
16G\JJ	1	.	.	.
4A#X\)	2	.	.	.
.	.	8a# 8g 8e/	.	.
=95	=95	=95	=95	=95
*^	*	*	*	*
!	!	!	!LO:SIC:v:s=2a# 2g 2e^>/	!	!
4rc	2.GG\	.	2a 2g#X 2e^>/	.	.
4C#/	.	.	.	.	.
!	!	!	!LO:SIC:v:s=4b 4g 4d/	!	!
4D/	.	.	4b 4g# 4d/	.	.
*v	*v	*	*	*	*
!!LO:PB:g=original
=96	=96	=96	=96	=96
4GG/	5	8cc#L 8a#X 8g\	3	.
.	.	8ddJ 8b 8g\	4	.
(16E\LL	5	4.gg 4.a# 4.g\	1 1 5	.
16F#\	4	.	.	<
16G\	3	.	.	.
16A#X\JJ	2	.	.	.
4c#\)	1	.	.	.
.	.	8ee 8a# 8g/	4	.
=97	=97	=97	=97	=97
*^	*	*	*	*
4rA	2.BB\	.	(2ee 2b 2f#^\	5	.
4F#/	.	.	.	.	.
.	.	.	.	.	[
4B/	.	.	4dd 4b 4f#\)	4	.
*v	*v	*	*	*	*
=98	=98	=98	=98	=98
4BB/	5	8cc#\L	2	f
.	.	8dd\J	1	.
(16F#\LL	4	4.cccn\	5	.
16A\	2	.	.	.
16B\	1	.	.	.
16cn\JJ	3	.	.	.
4d#X\)	2	.	.	.
.	.	8ff#\	2	.
=99	=99	=99	=99	=99
4EE/	.	(2aa 2ee 2b^\	5	.
4BB/	.	.	.	.
4G\	.	4gg 4ee 4b\)	4	.
=100	=100	=100	=100	=100
4AA/	.	8ff#\L	3	.
.	.	8ee\J	2	.
4cn 4F# 4D\	.	4.ccn\	1	.
4DD/	.	.	.	.
.	.	8f#/	3	.
=101	=101	=101	=101	=101
4GG/	5	(2a (2cn^>/	5	.
!LO:TX:t=P:problem:brackettup	!	!	!	!
!LO:TUP:a	!	!	!	!
12C#X\L	4	.	.	.
12D\	3	.	.	.
12F#\J	2	.	.	.
4G\	1	4g 4B/))	4	.
!!LO:LB:g=original
=102	=102	=102	=102	=102
*^	*	*	*	*
4rc	2.BB\	.	8g/L	4	p
.	.	.	8f#/J	.	.
4F#/	.	.	4.a^>/	5	.
4A/	.	.	.	.	.
.	.	.	8d#X/	2	.
=103	=103	=103	=103	=103	=103
4rc	2.BB\	.	8f#/L	4	<
.	.	.	16ra	.	.
.	.	.	(16e/Jk	3	.
4E/	.	.	4g^>/)	5	.
4G/	.	.	4r	.	[[
*v	*v	*	*	*	*
=104	=104	=104	=104	=104
4B\	.	8ff#\L	2	.
.	.	16r	.	.
.	.	16ee\Jk	1	.
8e\	.	16gg^\LL	3	.
.	.	16bb\	5	.
8r	.	16gg\	4	.
.	.	16ee\JJ	2	.
8g\	.	16ccn\LL	1	.
.	.	16gg\	5	.
8r	.	16ee\	4	.
.	.	16cc\JJ	2	.
=105	=105	=105	=105	=105
8e\	.	16g/LL	1	.
.	.	16ee/	5	.
8r	.	16ccn/	4	>
.	.	16g/JJ	2	.
8cn\	.	16e/LL	1	.
.	.	16cc/	5	.
8r	.	16g/	2	.
.	.	16e/JJ	1	.
8A\	.	16f#/LL	2	.
.	.	16g/	1	.
8r	.	16a/	2	.
.	.	16b/JJ	3	]
=106	=106	=106	=106	=106
*^	*	*	*	*
4r	2.E\	.	8ccn\L	4	.
.	.	.	8b\J	3	.
4G#X/	.	.	4.dd^\	5	.
4d/	.	.	.	.	.
.	.	.	8g#X/	2	.
!!LO:LB:g=original
=107	=107	=107	=107	=107	=107
4r	2.E\	5	8b/L	4	.
.	.	.	16r	.	.
.	.	.	(<16a/Jk	3	.
4A/	.	3	4ccn^\)	5	.
4cn/	.	2	4r	.	.
*v	*v	*	*	*	*
=108	=108	=108	=108	=108
4e\	1	8bb\L	2	.
.	.	16r	.	.
.	.	16aa\Jk	1	.
*clefG2	*	*	*	*
8a/	.	16cccn^\LL	2	.
.	.	16fffn\	5	.
8r	.	16ccc\	.	.
.	.	16aa\JJ	1	.
8ccn\	.	16ffn\LL	2	.
.	.	16ccc\	5	.
8r	.	16aa\	4	.
.	.	16ff\JJ	2	.
=109	=109	=109	=109	=109
8a/	.	16ccn\LL	1	.
.	.	16aa\	5	>
8r	.	16ffn\	4	.
.	.	16cc\JJ	2	.
8fn/	.	16a\LL	1	.
.	.	16ff\	5	.
8r	.	16cc\	2	.
.	.	16a\JJ	1	.
*clefF4	*	*	*	*
16d\LL	1	16b\LL	2	.
16cn\	.	16cc\	1	.
16B\	.	16dd\	2	]]
16A\JJ	4	16dd#X\JJ	3	.
=110	=110	=110	=110	=110
*^	*	*	*	*
4rd	2.G\	5	8ee\L	4	.
.	.	.	8dd#X\J	3	.
4A/	.	.	4.ff#X^\	5	.
4e/	.	.	.	.	.
.	.	.	8ccn\	2	.
=111	=111	=111	=111	=111	=111
4rd	2.F#X\	5	8ee\L	4	<
.	.	.	8dd#X\J	2	.
4A#X/	.	.	4.ff#^\	5	.
4e/	.	.	.	.	.
.	.	.	8cc#X\	2	[[
*v	*v	*	*	*	*
*clefG2	*	*	*	*
!!LO:LB:g=original
=112	=112	=112	=112	=112
4f#/	4	8eee\L	3	.
.	.	16rgg	.	.
.	.	16ddd#X\Jk	2	.
8a#X/	3	16fff#^\LL	4	.
.	.	16ggg\	5	.
8r	.	16eee\	3	.
.	.	16ccc#\JJ	1	.
8cc#\	2	16aa#X\LL	2	.
.	.	16eee\	5	.
8r	.	16ccc#\	4	.
.	.	16aa#\JJ	2	.
=113	=113	=113	=113	=113
8ee\	1	16gg\LL	1	.
.	.	16ccc#\	4	.
8r	.	16aa#X\	3	.
.	.	16gg\JJ	2	>
4r	.	16ee\LL	1	.
.	.	16aa#\	3	.
.	.	16gg\	2	.
.	.	16ee\JJ	1	.
4r	.	16cc#\LL	2	.
.	.	16gg\	5	.
.	.	16ee\	4	.
.	.	16cc#\JJ	3	]
*clefF4	*	*	*	*
=114	=114	=114	=114	=114
[2.e [2.c# [2.F#\	.	16a#X/LL	2	.
.	.	16f#/	1	.
.	.	16g/	2	.
.	.	16g#X/JJ	3	.
.	.	16an/LL	1	.
.	.	16a#X/	3	.
.	.	16b/	1	.
.	.	16b#X/JJ	2	.
.	.	16cc#\LL	3	.
.	.	16dd\	1	.
.	.	16dd#X\	3	.
.	.	16ee\JJ	1	.
=115	=115	=115	=115	=115
!	!	!LO:TX:t=P:problem:brackettup	!	!
!	!	!LO:TUP:a	!	!
8e] 8c#] 8F#\]	.	12ee#X\L	.	.
!	!	!LO:TX:b:i:t=ritard	!	!
.	.	12ff#\	.	.
8r	.	.	.	.
.	.	12gg\J	.	.
!	!	!LO:TX:t=P:problem:brackettup	!	!
!	!	!LO:TUP:a	!	!
4r	.	12gg#X\L	.	.
.	.	12aa\	.	.
.	.	12aa#X\J	.	.
!	!	!LO:TX:t=P:problem:brackettup	!	!
!	!	!LO:TUP:a	!	!
4r	.	12bb\L	.	.
.	.	12bb#X\	.	.
.	.	12ccc#\J	3	.
!!LO:LB:g=original
=116||	=116||	=116||	=116||	=116||
!!LO:TX:a:t=Tempo I.
4BB^/	5	8ddd\L	4	f
.	.	8ccc#\J	3	.
(8.A#X\L	2	[4eee^\	5	.
16F#\Jk	4	.	.	.
4e\)	1	16eee\LL]	.	.
.	.	16ff#\	1	.
.	.	16gg#X\	2	.
.	.	16aa#X\JJ	3	.
=117	=117	=117	=117	=117
4BB/	5	8ccc#\L	4	.
.	.	8bb\J	3	.
(8.B\L	2	[4ddd^\	5	.
16F#\Jk	5	.	.	.
4d\)	1	16ddd\LL]	.	.
.	.	16dd\	1	.
.	.	16ee#X\	.	.
.	.	16ff#\JJ	.	.
=118	=118	=118	=118	=118
4C#/	5	8.aa\L	5	.
.	.	16gg\Jk	4	.
!	!	!LO:TX:t=P:problem:brackettup	!	!
!	!	!LO:TUP:a	!	!
(8.A\L	2	12een\L	2	.
.	.	12a\	1	.
.	.	12cc#\J	2	.
16G\Jk	3	.	.	.
4c#\)	1	16ee\LL	1	.
.	.	16ff#\	2	.
.	.	16gg\	3	.
.	.	16gg#X\JJ	4	.
=119	=119	=119	=119	=119
(8D\L	5	(2bb 2ggn^\	3 5	.
8E#X\	4	.	.	.
8F#\	3	.	.	.
8A\J	2	.	.	.
4d\)	1	4aa 4ff#\)	2 4	.
=120	=120	=120	=120	=120
*^	*	*	*	*
8rc	2.Cn\	3	8.bb\L	3	<
8D/L	.	.	.	.	.
.	.	.	16aa\Jk	2	.
8F#/	.	.	4ff#\	1	.
8D/	.	.	.	.	.
8F#/	.	.	4eee 4aa 4ff#\	.	[
8D/J	.	.	.	.	.
!!LO:LB:g=original
=121	=121	=121	=121	=121	=121
*	*	*	*^	*	*
8rA	2.BB\	4	(2eee/	2.bb 2.gg\	.	.
8D/L	.	.	.	.	.	.
8G/	.	.	.	.	.	.
8D/	.	.	.	.	.	.
8G/	.	.	4ddd/)	.	.	.
8D/J	.	.	.	.	.	.
*	*	*	*v	*v	*	*
=122	=122	=122	=122	=122	=122
8rA	2.AA#X\	5	8.ddd\L	5	.
8E/L	.	.	.	.	.
.	.	.	16ccc#X\Jk	4	.
8F#/	.	.	16ee#X\LL	1	.
.	.	.	16ff#\	2	.
8E/	.	.	16gg#X\	3	.
.	.	.	16aa#X\JJ	4	.
8F#/	.	.	16bb\LL	1	.
.	.	.	16ccc#\	2	.
8E/J	.	.	16ddd\	3	.
.	.	.	16eee\JJ	4	.
*v	*v	*	*	*	*
=123	=123	=123	=123	=123
(8BB\L	5	(2ggg 2eee^\	3 5	.
8D\	4	.	.	.
8F#\	3	.	.	.
8A#X\J	2	.	.	.
4B\)	1	4fff# 4ddd\)	2 4	.
=124	=124	=124	=124	=124
8C#/L	.	8eee#XL 8ccc# 8bb\	4	ff
16r	.	16r	.	.
(16C#/Jk	.	(16eee#Jk 16ccc# 16bb\	.	.
8F#/L)	.	4fff# 4ccc# 4aa#X^\)	.	.
16r	.	.	.	.
*clefG2	*	*	*	*
(>16eenJk 16a#X/	1 3	.	.	.
8cc# 8e/)	2 5	4r	.	.
8r	.	.	.	.
*clefF4	*	*	*	*
=125	=125	=125	=125	=125
8BB/L	.	8ddd#XL 8bb 8aa\	4	.
16r	.	16r	.	.
(16BB/Jk	.	(16ddd#Jk 16bb 16aa\	.	.
8E/L)	.	4eee 4bb 4gg#X^\)	.	.
16r	.	.	.	.
*clefG2	*	*	*	*
(>16ddnJk 16g#X/	1 3	.	.	.
8b 8d/)	2 5	4r	.	.
8r	.	.	.	.
*clefF4	*	*	*	*
!!LO:PB:g=original
=126	=126	=126	=126	=126
8AA/L	.	8ccc#L 8aa 8ggn\	4	.
16r	.	16r	.	.
(16AA/Jk	.	(16ccc#Jk 16aa 16gg\	.	.
8D/L)	.	4ddd 4aa 4ff#^\)	.	.
16r	.	.	.	.
*clefG2	*	*	*	*
(>16ccnJk 16f#/	1 3	.	.	.
8a 8cn/)	2 5	4r	.	.
8r	.	.	.	.
*clefF4	*	*	*	*
=127	=127	=127	=127	=127
8FF#/L	2	8aa#XL 8ff# 8ee^\	4	.
16rC	.	16r	.	.
(16FF#/Jk	.	(16aa#Jk 16ff# 16ee\	.	.
8BB/L)	.	4bb 4ff# 4dd^\)	.	.
16rC	.	.	.	.
(16FF#/Jk	2	.	.	.
4BBB/)	5	4r	.	.
=128	=128	=128	=128	=128
2.r	.	8f#/L	2	.
.	.	16r	.	.
.	.	(16g/K	3	.
.	.	8f#/)	.	.
.	.	16r	.	>
.	.	(16g/K	.	.
.	.	8f#/)	.	.
.	.	16r	.	.
.	.	(16g/Jk	.	.
=129	=129	=129	=129	=129
2.r	.	8f#/L)	.	.
.	.	16r	.	.
.	.	(16g/K	.	.
!LO:TX:a:i:t=ritard.	!	!	!	!
.	.	8f#/)	.	.
.	.	16r	.	.
.	.	(16g/K	3	.
.	.	8f#/)	2	.
.	.	16r	.	.
.	.	(<16g#X/Jk	2	]
!!LO:LB:g=original
=130||	=130||	=130||	=130||	=130||
*k[f#c#g#d#a#]	*	*k[f#c#g#d#a#]	*	*
*^	*	*	*	*
!!LO:TX:a:i:t=a tempo
!	!	!	!	!	!LO:DY:rj
4rc	2.AA#\	5	8f#\L)	1	p
.	.	.	16r	.	.
.	.	.	16gg#Jk 16ee\	3 5	.
!LO:TX:a:i:t=grazioso	!	!	!	!	!
(<16F#/LL	.	2	4gg# 4ee\	.	.
16E#X/	.	3	.	.	.
16F#/	.	2	.	.	.
16G#/JJ	.	1	.	.	.
4F#/)	.	2	8r	.	.
.	.	.	8f#/	2	.
=131	=131	=131	=131	=131	=131
4rc	2.BB\	5	8f#\L	1	.
.	.	.	16r	.	.
.	.	.	16ff#Jk 16dd#\	4 5	.
(<16F#/LL	.	.	4ff# 4dd#\	.	.
16E#X/	.	.	.	.	.
16F#/	.	.	.	.	.
16G#/JJ	.	.	.	.	.
4F#/)	.	.	8r	.	.
.	.	.	8f#/	1	.
*v	*v	*	*	*	*
=132	=132	=132	=132	=132
4C#/	5	8f#/L	2	.
.	.	16r	.	.
.	.	(16g#/K	.	.
4E\	3	8f#/)	.	.
.	.	16r	.	.
.	.	(16g#/K	.	.
4F#\	2	8f#/)	.	.
.	.	16r	.	.
.	.	(16g#/Jk	.	.
=133	=133	=133	=133	=133
4D#\	4	8f#/L)	2	.
.	.	16r	.	.
.	.	(16g#/K	.	.
4F#\	2	8a#/)	4	.
.	.	16r	.	.
.	.	(16b/K	1	.
4B\	1	8cc#/)	.	.
.	.	16r	.	.
.	.	(<16dd#/Jk	.	.
=134	=134	=134	=134	=134
4E\	5	8eeL 8cc#\)	.	.
.	.	16rb	.	.
.	.	16bbJk 16gg#\	.	.
(16G#\LL	3	4bb 4gg#\	.	.
16B\	1	.	.	.
16c#\	3	.	.	.
16e\JJ	2	.	.	.
4g#\)	1	8r	.	.
.	.	(8ee 8cc#\	2 4	.
!!LO:LB:g=original
=135	=135	=135	=135	=135
4BB/	5	8dd# 8b\)L	1 3	.
.	.	16r	.	.
.	.	(16gg# 16dd#\J	.	.
(16F#\LL	3	4ff# 4dd#\)	.	.
16A#\	2	.	.	.
16B\	1	.	.	.
16d#\JJ	3	.	.	.
4f#\)	2	8r	.	.
.	.	8b\	3	.
=136	=136	=136	=136	=136
4FF#/	.	8a#\L	2	.
.	.	16r	.	.
.	.	(16b\K	1	.
(4A# 4F# 4E\	1 2 3	8cc#\)	3	<
.	.	16r	.	.
.	.	(16dd#\K	4	.
4C#/)	.	8ee\)	5	.
.	.	16r	.	.
.	.	(16a#\Jk	2	.
=137	=137	=137	=137	=137
4BB/	.	8b\L)	1	.
.	.	16r	.	.
.	.	(16cc#\K	.	.
(4B 4F#\	.	8dd#\)	.	.
.	.	16r	.	.
.	.	(16ee\K	.	.
4D#\)	.	8ff#\)	.	.
.	.	16r	.	.
.	.	(16dd#\Jk	.	.
=138	=138	=138	=138	=138
4AA#/	.	8cc#\L)	.	.
.	.	16r	.	.
.	.	(16dd#\K	.	.
(4A# 4F#\	.	8ee\)	.	.
.	.	16r	.	.
.	.	(16ff#\K	.	.
4c#\)	.	8gg#\)	.	.
.	.	16r	.	.
.	.	(16ee\Jk	.	.
=139	=139	=139	=139	=139
4BB/	.	8dd#\L)	.	.
.	.	16r	.	.
.	.	(16ee\K	.	.
(4B 4F#\	2 4	8ff#\)	.	.
.	.	16r	.	.
.	.	(16gg#\K	.	.
4d#\)	1	8aa#\)	.	.
.	.	16r	.	.
!	!	!LO:TX:t=P:problem:początek łuku	!	!
.	.	16bb\Jk	1	.
!!LO:LB:g=original
=140	=140	=140	=140	=140
!	!	!LO:TX:t=P:problem:łuczek nad oznaczeniem palcowania	!	!
2.r	.	[2.fff#TT\	23	>
=141	=141	=141	=141	=141
2.r	.	2.fff#TTT\_	.	]]
=142	=142	=142	=142	=142
*^	*	*	*	*
8d#/L	2.F#\	1 5	2.fff#\TTT]	.	p
(<8c#/J	.	2	.	.	.
4.e^/	.	1	.	.	.
8A#/)	.	3	.	.	.
=143	=143	=143	=143	=143	=143
8c#/L	2.F#\	2	2fff#\	.	.
8B/J	.	3	.	.	.
2d#^/	.	1	.	.	.
.	.	.	16fff#\LL	2	.
.	.	.	16ggg#\	3	.
.	.	.	16fff#\	2	.
.	.	.	16eee\JJ	1	.
*v	*v	*	*	*	*
=144	=144	=144	=144	=144
4BB/	.	8ddd#\L	3	ff
.	.	8ccc#\J	2	.
2e 2A# 2F#^\	.	4.eee^\	5	.
.	.	8aa#\	2	.
=145	=145	=145	=145	=145
4BB/	.	8ccc#\L	4	.
.	.	8bb\J	3	.
2d# 2B 2F#^\	.	4.ddd#^\	5	.
.	.	8ff#\	1	.
=146	=146	=146	=146	=146
4FF#/	.	8gg#\L	3	.
.	.	8ff#\J	2	.
2e 2c# 2F#^\	.	4.aa#^\	4	.
.	.	8ee\	1	.
!!LO:LB:g=original
=147	=147	=147	=147	=147
4BB/	.	8gg#\L	3	.
.	.	8ff#\J	2	.
2d# 2B 2F#^\	.	4.bb^\	5	.
.	.	(8dd#\	1	.
=148	=148	=148	=148	=148
4EE/	.	8cc#\L)	2	.
.	.	16r	.	.
.	.	(16dd#\K	3	.
2c# 2G# 2E^\	.	8ee\)	1	.
.	.	16r	.	.
.	.	(16ff#\K	.	.
.	.	8gg#\)	.	.
.	.	16r	.	.
.	.	(16aa#\Jk	4	.
=149	=149	=149	=149	=149
4FF#/	.	8bb\L)	5	.
.	.	16r	.	.
.	.	(16aa#\K	3	.
2d# 2B 2F#^\	.	8bb\)	1	.
.	.	16r	.	.
.	.	(16ccc#\	.	.
.	.	8ddd#\)	.	.
.	.	16r	.	.
.	.	(16eee\J	4	.
=150	=150	=150	=150	=150
4FF#/	.	8.fff#\L)	5	.
.	.	16eee\Jk	4	.
2e 2A# 2F#^\	.	4ccc#\	2	.
.	.	4eee\	4	.
=151	=151	=151	=151	=151
8BB\L	5	(2ggg# 2eee^\	1 4	.
8E#X\	1	.	.	.
8F#\	3	.	.	.
8A#\J	2	.	.	.
4B\	1	4fff# 4ddd#\)	2 3	.
!!LO:LB:g=original
=152	=152	=152	=152	=152
8c#\L	3	8eee#XL 8ccc# 8gg#\	4	.
16r	.	16r	.	.
(16c#\Jk	2	(16eee#Jk 16ccc# 16gg#\	.	.
4f#^\)	1	4fff# 4ccc# 4aa#^\)	.	.
(4F#\	5	4r	.	.
=153	=153	=153	=153	=153
8B\L)	3	8ddd#L 8bb 8ff#\	4	.
16r	.	16r	.	.
(16B\Jk	2	(16ddd#Jk 16bb 16ff#\	.	.
4e^\)	1	4eee 4bb 4gg#^\)	.	.
(4E\	5	4r	.	.
=154	=154	=154	=154	=154
8An\L)	3	8ccc#L 8aan 8ee\	4	.
16r	.	16r	.	.
(16A\Jk	2	(16ccc#Jk 16aa 16ee\	.	.
4dn^\)	1	4dddn 4aa 4ff#^\)	.	.
4Dn\	.	4r	.	.
=155	=155	=155	=155	=155
4F# 4FF#/	.	4aa# 4ff# 4cc#^\	.	ff
!	!	!LO:TX:b:i:t=rall.	!	!
4B 4BB^\	.	4bb 4ff# 4dd# 4b^\	.	.
4BB 4BBB/	.	4r	.	.
=156	=156	=156	=156	=156
*	*	*8va	*	*
4d# 4B 4F#\	.	4bbb 4fff# 4ddd# 4bb\	.	.
*	*	*X8va	*	*
4r	.	4r	.	.
4r	.	4r	.	.
=157	=157	=157	=157	=157
2.BB 2.BBB;/	.	2.b 2.f# 2.d#;/	.	.
==	==	==	==	==
*-	*-	*-	*-	*-
!!!system-decoration: {(g1)}
!!!RDF**kern: i = editorial accidental
!!!RDF**kern: > = above
!!!RDF**kern: < = below
!!!RDF**kern: N = linked
!!!RDF**dynam: > = "dim.", fontstyle= "italic"
!!!ENC: Anastazja Marusiak
!!!EED: Katarzyna Serwa
!!!END: 2023-10-11
!!!EEV: 2023-10-24
